src/svg-light/bottom_left_corner.svg

<svg xmlns="http://www.w3.org/2000/svg" id="svg5327" width="32" height="32" version="1.1">
 <defs id="defs5329">
  <filter id="filter987" style="color-interpolation-filters:sRGB" width="1.096" height="1.096" x="-.05" y="-.05">
   <feGaussianBlur id="feGaussianBlur989" stdDeviation=".28"/>
  </filter>
  <filter id="filter1003" style="color-interpolation-filters:sRGB" width="1.096" height="1.096" x="-.05" y="-.05">
   <feGaussianBlur id="feGaussianBlur1005" stdDeviation=".16"/>
  </filter>
  <filter id="filter1027" style="color-interpolation-filters:sRGB" width="1.096" height="1.096" x="-.05" y="-.05">
   <feGaussianBlur id="feGaussianBlur1029" stdDeviation=".15"/>
  </filter>
 </defs>
 <path id="path969" style="color:#000000;font-style:normal;font-variant:normal;font-weight:normal;font-stretch:normal;font-size:medium;line-height:normal;font-family:sans-serif;font-variant-ligatures:normal;font-variant-position:normal;font-variant-caps:normal;font-variant-numeric:normal;font-variant-alternates:normal;font-feature-settings:normal;text-indent:0;text-align:start;text-decoration:none;text-decoration-line:none;text-decoration-style:solid;text-decoration-color:#000000;letter-spacing:normal;word-spacing:normal;text-transform:none;writing-mode:lr-tb;direction:ltr;text-orientation:mixed;dominant-baseline:auto;baseline-shift:baseline;text-anchor:start;white-space:normal;shape-padding:0;clip-rule:nonzero;display:inline;overflow:visible;visibility:visible;opacity:0.3;isolation:auto;mix-blend-mode:normal;color-interpolation:sRGB;color-interpolation-filters:linearRGB;solid-color:#000000;solid-opacity:1;vector-effect:none;fill:#000000;fill-opacity:1;fill-rule:nonzero;stroke:none;stroke-width:3;stroke-linecap:round;stroke-linejoin:miter;stroke-miterlimit:4;stroke-dasharray:none;stroke-dashoffset:0;stroke-opacity:1;filter:url(#filter1027);color-rendering:auto;image-rendering:auto;shape-rendering:auto;text-rendering:auto;enable-background:accumulate" d="m 14.470703,16.4855 a 1.50015,1.50015 0 0 0 -1.03125,0.4531 l -4.4999999,4.5 a 1.5005139,1.5005139 0 1 0 2.1210939,2.123 l 4.5,-4.5 a 1.50015,1.50015 0 0 0 -1.089844,-2.5761 z"/>
 <path id="path973" style="opacity:0.3;fill:#000000;fill-opacity:1;stroke-width:0.24287432;filter:url(#filter1003)" d="m 9.9504385,17.535343 c -0.5170027,-0.1454 -1.0637452,0.1668 -1.2110113,0.6915 l -1.7015979,6.0703 c -0.2018193,0.7196 0.4448479,1.3669 1.1640076,1.165 l 6.0790651,-1.6572 c 0.718347,-0.2068 0.960248,-1.1466 0.442128,-1.6646 l -4.36564,-4.368 c -0.112776,-0.112 -0.252724,-0.1942 -0.4070048,-0.2372 z"/>
 <path id="path971" style="opacity:0.3;fill:#000000;fill-opacity:1;stroke:none;stroke-width:2;stroke-linecap:round;stroke-linejoin:round;stroke-miterlimit:4;stroke-dasharray:none;stroke-dashoffset:0;stroke-opacity:1;paint-order:normal;filter:url(#filter987)" d="M 2.5,16.5 C 2.223,16.5 2,16.723 2,17 v 12 1 c 0,0.277 0.223,0.5 0.5,0.5 h 1 12 c 0.277,0 0.5,-0.223 0.5,-0.5 v -2 c 0,-0.277 -0.224248,-0.5263 -0.5,-0.5 H 5 V 17 C 5,16.723 4.777,16.5 4.5,16.5 Z"/>
 <path id="path829" style="fill:none;stroke:#e4e4e4;stroke-width:3;stroke-linecap:round;stroke-linejoin:miter;stroke-miterlimit:4;stroke-dasharray:none;stroke-opacity:1" d="M 14.5,17.5 10,22"/>
 <path id="path951" style="color:#000000;font-style:normal;font-variant:normal;font-weight:normal;font-stretch:normal;font-size:medium;line-height:normal;font-family:sans-serif;font-variant-ligatures:normal;font-variant-position:normal;font-variant-caps:normal;font-variant-numeric:normal;font-variant-alternates:normal;font-feature-settings:normal;text-indent:0;text-align:start;text-decoration:none;text-decoration-line:none;text-decoration-style:solid;text-decoration-color:#000000;letter-spacing:normal;word-spacing:normal;text-transform:none;writing-mode:lr-tb;direction:ltr;text-orientation:mixed;dominant-baseline:auto;baseline-shift:baseline;text-anchor:start;white-space:normal;shape-padding:0;clip-rule:nonzero;display:inline;overflow:visible;visibility:visible;opacity:0.25;isolation:auto;mix-blend-mode:normal;color-interpolation:sRGB;color-interpolation-filters:linearRGB;solid-color:#000000;solid-opacity:1;vector-effect:none;fill:#000000;fill-opacity:1;fill-rule:nonzero;stroke:none;stroke-width:3;stroke-linecap:round;stroke-linejoin:miter;stroke-miterlimit:4;stroke-dasharray:none;stroke-dashoffset:0;stroke-opacity:1;color-rendering:auto;image-rendering:auto;shape-rendering:auto;text-rendering:auto;enable-background:accumulate" d="m 14.470703,15.9855 a 1.50015,1.50015 0 0 0 -1.03125,0.4531 l -4.4999999,4.5 a 1.5005139,1.5005139 0 1 0 2.1210939,2.123 l 4.5,-4.5 a 1.50015,1.50015 0 0 0 -1.089844,-2.5761 z"/>
 <path id="path8" style="fill:#e4e4e4;stroke-width:0.18215574" d="m 10.212929,18.026343 c -0.3877519,-0.1091 -0.7978088,0.1251 -0.9082584,0.5186 l -1.2761984,4.5527 c -0.1513645,0.5397 0.3336359,1.0252 0.8730057,0.8738 l 4.5592991,-1.2429 c 0.53876,-0.1551 0.720186,-0.86 0.331596,-1.2485 l -3.274231,-3.276 c -0.08458,-0.084 -0.189543,-0.1456 -0.305253,-0.1779 z"/>
 <path id="rect825" style="opacity:1;fill:#e4e4e4;fill-opacity:1;stroke:none;stroke-width:2;stroke-linecap:round;stroke-linejoin:round;stroke-miterlimit:4;stroke-dasharray:none;stroke-dashoffset:0;stroke-opacity:1;paint-order:normal" d="M 2.5,16 C 2.223,16 2,16.223 2,16.5 v 12 1 C 2,29.777 2.223,30 2.5,30 h 1 12 c 0.277,0 0.5,-0.223 0.5,-0.5 v -2 C 16,27.223 15.775752,26.973738 15.5,27 H 5 V 16.5 C 5,16.223 4.777,16 4.5,16 Z"/>
 <path id="path834" style="opacity:0.25;fill:#000000;fill-opacity:1;stroke:none;stroke-width:2;stroke-linecap:round;stroke-linejoin:round;stroke-miterlimit:4;stroke-dasharray:none;stroke-dashoffset:0;stroke-opacity:1;paint-order:normal" d="M 2.5,16 C 2.223,16 2,16.223 2,16.5 v 12 1 C 2,29.777 2.223,30 2.5,30 h 1 12 c 0.277,0 0.5,-0.223 0.5,-0.5 v -2 C 16,27.223 15.775752,26.973738 15.5,27 H 5 V 16.5 C 5,16.223 4.777,16 4.5,16 Z"/>
 <path id="path940" style="color:#000000;font-style:normal;font-variant:normal;font-weight:normal;font-stretch:normal;font-size:medium;line-height:normal;font-family:sans-serif;font-variant-ligatures:normal;font-variant-position:normal;font-variant-caps:normal;font-variant-numeric:normal;font-variant-alternates:normal;font-feature-settings:normal;text-indent:0;text-align:start;text-decoration:none;text-decoration-line:none;text-decoration-style:solid;text-decoration-color:#000000;letter-spacing:normal;word-spacing:normal;text-transform:none;writing-mode:lr-tb;direction:ltr;text-orientation:mixed;dominant-baseline:auto;baseline-shift:baseline;text-anchor:start;white-space:normal;shape-padding:0;clip-rule:nonzero;display:inline;overflow:visible;visibility:visible;opacity:0.05;isolation:auto;mix-blend-mode:normal;color-interpolation:sRGB;color-interpolation-filters:linearRGB;solid-color:#000000;solid-opacity:1;vector-effect:none;fill:#010101;fill-opacity:1;fill-rule:nonzero;stroke:none;stroke-width:3;stroke-linecap:round;stroke-linejoin:miter;stroke-miterlimit:4;stroke-dasharray:none;stroke-dashoffset:0;stroke-opacity:1;color-rendering:auto;image-rendering:auto;shape-rendering:auto;text-rendering:auto;enable-background:accumulate" d="m 14.470703,15.986328 a 1.50015,1.50015 0 0 0 -1.03125,0.453125 l -4.4999999,4.5 A 1.5005306,1.5005306 0 1 0 11.060547,23.0625 l 4.5,-4.5 A 1.50015,1.50015 0 0 0 14.470703,15.986328 Z M 14.5,16.976562 v 0.0098 c 0.274648,-0.01 0.396422,0.115288 0.476562,0.304688 0.08014,0.1895 0.08392,0.363387 -0.113281,0.554687 h -0.0039 l -4.505859,4.505859 c -0.176977,0.1768 -0.260938,0.177775 -0.3613285,0.171876 -0.1003904,-0.01 -0.2376306,-0.06398 -0.3457031,-0.171876 C 9.5384178,22.243397 9.4785228,22.10434 9.4726622,22.00394 c -0.00586,-0.1004 -0.00315,-0.184528 0.1738282,-0.361328 l 4.5039066,-4.503906 0.0059,-0.01172 c 0.09088,-0.093 0.213525,-0.146691 0.34375,-0.150391 z"/>
 <path id="path844" style="opacity:0.25;fill:none;fill-opacity:1;stroke:#000000;stroke-width:2;stroke-linecap:round;stroke-linejoin:round;stroke-miterlimit:4;stroke-dasharray:none;stroke-opacity:1" d="m 9.9504385,17.035343 c -0.5170027,-0.1454 -1.0637452,0.1668 -1.2110113,0.6915 l -1.7015979,6.0703 c -0.2018193,0.7196 0.4448479,1.3669 1.1640076,1.165 l 6.0790651,-1.6572 c 0.718347,-0.2068 0.960248,-1.1466 0.442128,-1.6646 l -4.36564,-4.368 c -0.112776,-0.112 -0.252724,-0.1942 -0.4070048,-0.2372 z"/>
 <path id="path840" style="fill:#e4e4e4;fill-opacity:1;stroke-width:0.24287432" d="m 9.9504385,17.035343 c -0.5170027,-0.1454 -1.0637452,0.1668 -1.2110113,0.6915 l -1.7015979,6.0703 c -0.2018193,0.7196 0.4448479,1.3669 1.1640076,1.165 l 6.0790651,-1.6572 c 0.718347,-0.2068 0.960248,-1.1466 0.442128,-1.6646 l -4.36564,-4.368 c -0.112776,-0.112 -0.252724,-0.1942 -0.4070048,-0.2372 z"/>
 <path id="path955" style="opacity:0.05;fill:#010101;fill-opacity:1;stroke:none;stroke-width:2;stroke-linecap:round;stroke-linejoin:round;stroke-miterlimit:4;stroke-dasharray:none;stroke-dashoffset:0;stroke-opacity:1;paint-order:normal" d="M 2.5,16 C 2.223,16 2,16.223 2,16.5 v 12 1 C 2,29.777 2.223,30 2.5,30 h 1 12 c 0.277,0 0.5,-0.223 0.5,-0.5 v -2 C 16,27.223 15.775752,26.973738 15.5,27 H 5 V 16.5 C 5,16.223 4.777,16 4.5,16 Z M 3,17 h 1 v 10 a 1.0001,1.0001 0 0 0 1,1 h 10 v 1 H 3.5 3 v -0.5 z"/>
</svg>

<svg xmlns="http://www.w3.org/2000/svg" id="svg5327" width="32" height="32" version="1.1">
 <defs id="defs5329">
  <filter id="filter987" style="color-interpolation-filters:sRGB" width="1.096" height="1.096" x="-.05" y="-.05">
   <feGaussianBlur id="feGaussianBlur989" stdDeviation=".28"/>
  </filter>
  <filter id="filter1003" style="color-interpolation-filters:sRGB" width="1.096" height="1.096" x="-.05" y="-.05">
   <feGaussianBlur id="feGaussianBlur1005" stdDeviation=".16"/>
  </filter>
  <filter id="filter1027" style="color-interpolation-filters:sRGB" width="1.096" height="1.096" x="-.05" y="-.05">
   <feGaussianBlur id="feGaussianBlur1029" stdDeviation=".15"/>
  </filter>
 </defs>
 <g id="layer1" transform="translate(0,-1020.3622)">
  <path id="path969" style="color:#000000;font-style:normal;font-variant:normal;font-weight:normal;font-stretch:normal;font-size:medium;line-height:normal;font-family:sans-serif;font-variant-ligatures:normal;font-variant-position:normal;font-variant-caps:normal;font-variant-numeric:normal;font-variant-alternates:normal;font-feature-settings:normal;text-indent:0;text-align:start;text-decoration:none;text-decoration-line:none;text-decoration-style:solid;text-decoration-color:#000000;letter-spacing:normal;word-spacing:normal;text-transform:none;writing-mode:lr-tb;direction:ltr;text-orientation:mixed;dominant-baseline:auto;baseline-shift:baseline;text-anchor:start;white-space:normal;shape-padding:0;clip-rule:nonzero;display:inline;overflow:visible;visibility:visible;opacity:0.3;isolation:auto;mix-blend-mode:normal;color-interpolation:sRGB;color-interpolation-filters:linearRGB;solid-color:#000000;solid-opacity:1;vector-effect:none;fill:#000000;fill-opacity:1;fill-rule:nonzero;stroke:none;stroke-width:3;stroke-linecap:round;stroke-linejoin:miter;stroke-miterlimit:4;stroke-dasharray:none;stroke-dashoffset:0;stroke-opacity:1;color-rendering:auto;image-rendering:auto;shape-rendering:auto;text-rendering:auto;enable-background:accumulate;filter:url(#filter1027)" d="m 14.470703,1036.8477 a 1.50015,1.50015 0 0 0 -1.03125,0.4531 l -4.4999999,4.5 a 1.5005139,1.5005139 0 1 0 2.1210939,2.123 l 4.5,-4.5 a 1.50015,1.50015 0 0 0 -1.089844,-2.5761 z"/>
  <path id="path973" style="opacity:0.3;fill:#000000;fill-opacity:1;stroke-width:0.24287432;filter:url(#filter1003)" d="m 8.9500376,1038.898 c -0.5170027,-0.1454 -1.0637452,0.1668 -1.2110113,0.6915 l -1.7015979,6.0703 c -0.2018193,0.7196 0.4448479,1.3669 1.1640076,1.165 l 6.079065,-1.6572 c 0.718347,-0.2068 0.960248,-1.1466 0.442128,-1.6646 l -4.36564,-4.368 c -0.112776,-0.112 -0.252724,-0.1942 -0.4070047,-0.2372 z"/>
  <path id="path971" style="opacity:0.3;fill:#000000;fill-opacity:1;stroke:none;stroke-width:2;stroke-linecap:round;stroke-linejoin:round;stroke-miterlimit:4;stroke-dasharray:none;stroke-dashoffset:0;stroke-opacity:1;paint-order:normal;filter:url(#filter987)" d="m 2.5,1036.8622 c -0.277,0 -0.5,0.223 -0.5,0.5 v 12 1 c 0,0.277 0.223,0.5 0.5,0.5 h 1 12 c 0.277,0 0.5,-0.223 0.5,-0.5 v -2 c 0,-0.277 -0.224248,-0.5263 -0.5,-0.5 H 5 v -10.5 c 0,-0.277 -0.223,-0.5 -0.5,-0.5 z"/>
  <path id="path829" style="fill:none;stroke:#e4e4e4;stroke-width:3;stroke-linecap:round;stroke-linejoin:miter;stroke-miterlimit:4;stroke-dasharray:none;stroke-opacity:1" d="m 14.5,1037.8622 -4.5,4.5"/>
  <path id="path951" style="color:#000000;font-style:normal;font-variant:normal;font-weight:normal;font-stretch:normal;font-size:medium;line-height:normal;font-family:sans-serif;font-variant-ligatures:normal;font-variant-position:normal;font-variant-caps:normal;font-variant-numeric:normal;font-variant-alternates:normal;font-feature-settings:normal;text-indent:0;text-align:start;text-decoration:none;text-decoration-line:none;text-decoration-style:solid;text-decoration-color:#000000;letter-spacing:normal;word-spacing:normal;text-transform:none;writing-mode:lr-tb;direction:ltr;text-orientation:mixed;dominant-baseline:auto;baseline-shift:baseline;text-anchor:start;white-space:normal;shape-padding:0;clip-rule:nonzero;display:inline;overflow:visible;visibility:visible;opacity:0.25;isolation:auto;mix-blend-mode:normal;color-interpolation:sRGB;color-interpolation-filters:linearRGB;solid-color:#000000;solid-opacity:1;vector-effect:none;fill:#000000;fill-opacity:1;fill-rule:nonzero;stroke:none;stroke-width:3;stroke-linecap:round;stroke-linejoin:miter;stroke-miterlimit:4;stroke-dasharray:none;stroke-dashoffset:0;stroke-opacity:1;color-rendering:auto;image-rendering:auto;shape-rendering:auto;text-rendering:auto;enable-background:accumulate" d="m 14.470703,1036.3477 a 1.50015,1.50015 0 0 0 -1.03125,0.4531 l -4.4999999,4.5 a 1.5005139,1.5005139 0 1 0 2.1210939,2.123 l 4.5,-4.5 a 1.50015,1.50015 0 0 0 -1.089844,-2.5761 z"/>
  <path id="path8" style="fill:#e4e4e4;stroke-width:0.18215574" d="m 9.2125282,1039.389 c -0.387752,-0.1091 -0.7978089,0.1251 -0.9082585,0.5186 l -1.2761984,4.5527 c -0.1513645,0.5397 0.3336359,1.0252 0.8730057,0.8738 l 4.559299,-1.2429 c 0.53876,-0.1551 0.720186,-0.86 0.331596,-1.2485 l -3.2742304,-3.276 c -0.084582,-0.084 -0.189543,-0.1456 -0.3052534,-0.1779 z"/>
  <path id="rect825" style="opacity:1;fill:#e4e4e4;fill-opacity:1;stroke:none;stroke-width:2;stroke-linecap:round;stroke-linejoin:round;stroke-miterlimit:4;stroke-dasharray:none;stroke-dashoffset:0;stroke-opacity:1;paint-order:normal" transform="translate(0,1020.3622)" d="M 2.5,16 C 2.223,16 2,16.223 2,16.5 v 12 1 C 2,29.777 2.223,30 2.5,30 h 1 12 c 0.277,0 0.5,-0.223 0.5,-0.5 v -2 C 16,27.223 15.775752,26.973738 15.5,27 H 5 V 16.5 C 5,16.223 4.777,16 4.5,16 Z"/>
  <path id="path834" style="opacity:0.25;fill:#000000;fill-opacity:1;stroke:none;stroke-width:2;stroke-linecap:round;stroke-linejoin:round;stroke-miterlimit:4;stroke-dasharray:none;stroke-dashoffset:0;stroke-opacity:1;paint-order:normal" transform="translate(0,1020.3622)" d="M 2.5,16 C 2.223,16 2,16.223 2,16.5 v 12 1 C 2,29.777 2.223,30 2.5,30 h 1 12 c 0.277,0 0.5,-0.223 0.5,-0.5 v -2 C 16,27.223 15.775752,26.973738 15.5,27 H 5 V 16.5 C 5,16.223 4.777,16 4.5,16 Z"/>
  <path id="path940" style="color:#000000;font-style:normal;font-variant:normal;font-weight:normal;font-stretch:normal;font-size:medium;line-height:normal;font-family:sans-serif;font-variant-ligatures:normal;font-variant-position:normal;font-variant-caps:normal;font-variant-numeric:normal;font-variant-alternates:normal;font-feature-settings:normal;text-indent:0;text-align:start;text-decoration:none;text-decoration-line:none;text-decoration-style:solid;text-decoration-color:#000000;letter-spacing:normal;word-spacing:normal;text-transform:none;writing-mode:lr-tb;direction:ltr;text-orientation:mixed;dominant-baseline:auto;baseline-shift:baseline;text-anchor:start;white-space:normal;shape-padding:0;clip-rule:nonzero;display:inline;overflow:visible;visibility:visible;opacity:0.05;isolation:auto;mix-blend-mode:normal;color-interpolation:sRGB;color-interpolation-filters:linearRGB;solid-color:#000000;solid-opacity:1;vector-effect:none;fill:#010101;fill-opacity:1;fill-rule:nonzero;stroke:none;stroke-width:3;stroke-linecap:round;stroke-linejoin:miter;stroke-miterlimit:4;stroke-dasharray:none;stroke-dashoffset:0;stroke-opacity:1;color-rendering:auto;image-rendering:auto;shape-rendering:auto;text-rendering:auto;enable-background:accumulate" transform="translate(0,1020.3622)" d="M 14.470703 15.986328 A 1.50015 1.50015 0 0 0 13.439453 16.439453 L 8.9394531 20.939453 A 1.5005139 1.5005139 0 1 0 11.060547 23.0625 L 15.560547 18.5625 A 1.50015 1.50015 0 0 0 14.470703 15.986328 z M 14.5 16.976562 L 14.5 16.986328 C 14.774648 16.976328 14.896422 17.101616 14.976562 17.291016 C 15.056703 17.480516 15.060482 17.654403 14.863281 17.845703 L 14.859375 17.845703 L 10.353516 22.351562 C 10.176539 22.528362 10.092578 22.529337 9.9921875 22.523438 C 9.8917971 22.513438 9.7545569 22.459462 9.6464844 22.351562 C 9.5384118 22.243363 9.4785168 22.104306 9.4726562 22.003906 C 9.4667962 21.903506 9.4695062 21.819378 9.6464844 21.642578 L 14.150391 17.138672 L 14.15625 17.126953 C 14.24713 17.033953 14.369775 16.980262 14.5 16.976562 z"/>
  <path id="path840" style="fill:#e4e4e4;fill-opacity:1;stroke-width:0.24287432" d="m 8.9500376,1038.398 c -0.5170027,-0.1454 -1.0637452,0.1668 -1.2110113,0.6915 l -1.7015979,6.0703 c -0.2018193,0.7196 0.4448479,1.3669 1.1640076,1.165 l 6.079065,-1.6572 c 0.718347,-0.2068 0.960248,-1.1466 0.442128,-1.6646 l -4.36564,-4.368 c -0.112776,-0.112 -0.252724,-0.1942 -0.4070047,-0.2372 z"/>
  <path id="path955" style="opacity:0.05;fill:#010101;fill-opacity:1;stroke:none;stroke-width:2;stroke-linecap:round;stroke-linejoin:round;stroke-miterlimit:4;stroke-dasharray:none;stroke-dashoffset:0;stroke-opacity:1;paint-order:normal" transform="translate(0,1020.3622)" d="M 2.5 16 C 2.223 16 2 16.223 2 16.5 L 2 28.5 L 2 29.5 C 2 29.777 2.223 30 2.5 30 L 3.5 30 L 15.5 30 C 15.777 30 16 29.777 16 29.5 L 16 27.5 C 16 27.223 15.775752 26.973738 15.5 27 L 5 27 L 5 16.5 C 5 16.223 4.777 16 4.5 16 L 2.5 16 z M 3 17 L 4 17 L 4 27 A 1.0001 1.0001 0 0 0 5 28 L 15 28 L 15 29 L 3.5 29 L 3 29 L 3 28.5 L 3 17 z"/>
  <path id="path962" style="color:#000000;font-style:normal;font-variant:normal;font-weight:normal;font-stretch:normal;font-size:medium;line-height:normal;font-family:sans-serif;font-variant-ligatures:normal;font-variant-position:normal;font-variant-caps:normal;font-variant-numeric:normal;font-variant-alternates:normal;font-feature-settings:normal;text-indent:0;text-align:start;text-decoration:none;text-decoration-line:none;text-decoration-style:solid;text-decoration-color:#000000;letter-spacing:normal;word-spacing:normal;text-transform:none;writing-mode:lr-tb;direction:ltr;text-orientation:mixed;dominant-baseline:auto;baseline-shift:baseline;text-anchor:start;white-space:normal;shape-padding:0;clip-rule:nonzero;display:inline;overflow:visible;visibility:visible;opacity:0.05;isolation:auto;mix-blend-mode:normal;color-interpolation:sRGB;color-interpolation-filters:linearRGB;solid-color:#000000;solid-opacity:1;vector-effect:none;fill:#010101;fill-opacity:1;fill-rule:nonzero;stroke:none;stroke-width:2;stroke-linecap:round;stroke-linejoin:round;stroke-miterlimit:4;stroke-dasharray:none;stroke-dashoffset:0;stroke-opacity:1;color-rendering:auto;image-rendering:auto;shape-rendering:auto;text-rendering:auto;enable-background:accumulate" transform="translate(0,1020.3622)" d="M 8.5625 18.007812 C 8.1837151 18.058873 7.8487308 18.333038 7.7382812 18.726562 L 6.0371094 24.796875 C 5.8352901 25.516475 6.4820122 26.164791 7.2011719 25.962891 L 13.28125 24.304688 C 13.999597 24.097888 14.240776 23.158625 13.722656 22.640625 L 9.3574219 18.273438 C 9.2446459 18.161437 9.1034995 18.078156 8.9492188 18.035156 C 8.8199681 17.998806 8.6887616 17.990792 8.5625 18.007812 z M 8.6933594 19.023438 L 13.011719 23.34375 C 13.008624 23.34375 13.00504 23.34375 13.003906 23.34375 L 7.0273438 24.972656 L 8.6933594 19.023438 z"/>
 </g>
</svg>
